packages/ui-icons/svg/Solid/move-down-bottom.svg

<svg viewBox="0 0 1920 1920" version="1.1" xmlns="http://www.w3.org/2000/svg">
    <path d="M677.647059,283.848471 L1920,283.848471 L1920,57.9661176 L677.647059,57.9661176 L677.647059,283.848471 Z M0,57.9661176 L0,1639.25553 L348.649412,1639.25553 L348.649412,1861.41082 L790.588235,1526.31435 L348.649412,1190.992 L348.649412,1413.26024 L225.882353,1413.26024 L225.882353,57.9661176 L0,57.9661176 Z M677.647059,735.726118 L1920,735.726118 L1920,509.843765 L677.647059,509.843765 L677.647059,735.726118 Z M677.647059,1187.37788 L1920,1187.37788 L1920,961.495529 L677.647059,961.495529 L677.647059,1187.37788 Z M1694.11765,1639.25553 L1920,1639.25553 L1920,1413.26024 L1694.11765,1413.26024 L1694.11765,1639.25553 Z M1355.29412,1639.25553 L1581.28941,1639.25553 L1581.28941,1413.26024 L1355.29412,1413.26024 L1355.29412,1639.25553 Z M1016.47059,1639.25553 L1242.35294,1639.25553 L1242.35294,1413.26024 L1016.47059,1413.26024 L1016.47059,1639.25553 Z" stroke="none" stroke-width="1" fill-rule="evenodd"/>
</svg>

<svg viewBox="0 0 1920 1920" xmlns="http://www.w3.org/2000/svg">
    <path d="M677.647 283.848H1920V57.966H677.647v225.882ZM0 57.966v1581.29h348.65v222.155l441.938-335.097-441.939-335.322v222.268H225.882V57.966H0Zm677.647 677.76H1920V509.844H677.647v225.882Zm0 451.652H1920V961.496H677.647v225.882Zm1016.47 451.878H1920V1413.26h-225.882v225.996Zm-338.823 0h225.995V1413.26h-225.995v225.996Zm-338.823 0h225.882V1413.26H1016.47v225.996Z" fill-rule="evenodd"/>
</svg>
